!!!COM: Palestrina, Giovanni Perluigi da
!!!OPR: Missa Ad coenam Agni
!!!OTL: Agnus II
**kern	**kern	**kern	**kern	**kern	**kern
*Ibass	*Ibass	*Itenor	*Icalto	*Icalto	*Icant
!Bassus 2	!Bassus 1	!Tenor	!Altus 2	!Altus 1	!Cantus
*clefF4	*clefF4	*clefGv2	*clefG2	*clefG2	*clefG2
*k[]	*k[]	*k[]	*k[]	*k[]	*k[]
*G:mix	*G:mix	*G:mix	*G:mix	*G:mix	*G:mix
*M4/2	*M4/2	*M4/2	*M4/2	*M4/2	*M4/2
=1	=1	=1	=1	=1	=1
0r	0r	0d	0r	0r	0r
=2	=2	=2	=2	=2	=2
0r	0r	2.e	0r	0r	0g
.	.	4d	.	.	.
.	.	4e	.	.	.
.	.	4f	.	.	.
.	.	[2g	.	.	.
=3	=3	=3	=3	=3	=3
0r	0r	2g]	0d	0r	0a
.	.	4f	.	.	.
.	.	4e	.	.	.
.	.	1f#	.	.	.
=4	=4	=4	=4	=4	=4
0r	0r	2g	2.e	0r	0g
.	.	4c	.	.	.
.	.	4B	4d	.	.
.	.	4c	4e	.	.
.	.	4d	4f	.	.
.	.	2e	[2g	.	.
=5	=5	=5	=5	=5	=5
0r	0r	0d	2g]	0r	0a
.	.	.	4f	.	.
.	.	.	4e	.	.
.	.	.	2f#	.	.
.	.	.	2f#	.	.
=6	=6	=6	=6	=6	=6
0r	0G	4G	1g	0r	0b
.	.	4A	.	.	.
.	.	4B	.	.	.
.	.	4c	.	.	.
.	.	2d	2r	.	.
.	.	[2e	2g	.	.
=7	=7	=7	=7	=7	=7
0r	2.A	4e]	2e	0c	0cc
.	.	4d	.	.	.
.	.	4c	2.a	.	.
.	4G	4B	.	.	.
.	4A	1A	.	.	.
.	4B	.	4g	.	.
.	[2c	.	4e	.	.
.	.	.	4f	.	.
=8	=8	=8	=8	=8	=8
0G	2c]	1G	2.g	0d	0r
.	4B	.	.	.	.
.	4A	.	8f	.	.
.	.	.	8e	.	.
.	1B	1g	2d	.	.
.	.	.	2G	.	.
=9	=9	=9	=9	=9	=9
2.A	2c	2e	0r	0c	0r
.	4F	2.a	.	.	.
4G	4E	.	.	.	.
4A	4F	.	.	.	.
4B	4G	4g	.	.	.
[2c	2A	4e	.	.	.
.	.	4f	.	.	.
=10	=10	=10	=10	=10	=10
2c]	0G	2.g	2r	0d	0r
4B	.	.	2g	.	.
4A	.	8f	.	.	.
.	.	8e	.	.	.
1B	.	1d	2g	.	.
.	.	.	[2g	.	.
=11	=11	=11	=11	=11	=11
0c	0C	1c	4g]	0e	0g
.	.	.	4f	.	.
.	.	.	2.e	.	.
.	.	1r	.	.	.
.	.	.	4d	.	.
.	.	.	4c	.	.
.	.	.	4B	.	.
=12	=12	=12	=12	=12	=12
2.F	0r	0c	2A	0f	2.a
.	.	.	1a	.	.
4E	.	.	.	.	4g
4F	.	.	.	.	4a
4G	.	.	.	.	4b
2A	.	.	2f	.	[2cc
=13	=13	=13	=13	=13	=13
0G	1r	0d	0g	0r	2cc]
.	.	.	.	.	4b
.	.	.	.	.	4a
.	1G	.	.	.	1b
=14	=14	=14	=14	=14	=14
2r	2.A	0c	2e	0r	2.cc
1F	.	.	1a	.	.
.	4G	.	.	.	4b
.	4A	.	.	.	4cc
.	4B	.	.	.	4dd
2C	[2c	.	2g	.	2ee
=15	=15	=15	=15	=15	=15
0G	2c]	0d	1g	0r	0dd
.	4B	.	.	.	.
.	4A	.	.	.	.
.	1B	.	2r	.	.
.	.	.	[2g	.	.
=16	=16	=16	=16	=16	=16
1C	2.c	2.e	2g]	0c	2r
.	.	.	2c	.	2g
.	4B	4d	.	.	.
1r	1A	1c	2e	.	1a
.	.	.	2f	.	.
=17	=17	=17	=17	=17	=17
2r	1G	1.B	2.g	2.d	2.b
1G	.	.	.	.	.
.	.	.	4f	4c	4a
.	1r	.	2g	4d	4b
.	.	.	.	4e	4cc
2D	.	2A	2a	[2f	[2dd
=18	=18	=18	=18	=18	=18
0A	1r	2r	0a	2f]	2dd]
.	.	1e	.	4e	4cc
.	.	.	.	4d	4b
.	2r	.	.	1e	1cc#
.	[2A	2A	.	.	.
=19	=19	=19	=19	=19	=19
0D	2A]	2.a	2r	2.f	1dd
.	2D	.	2.a	.	.
.	.	4g	.	4e	.
.	[1d	4f	.	4f	2r
.	.	4e	4g	4g	.
.	.	4d	4f	2a	2a
.	.	4c	4e	.	.
=20	=20	=20	=20	=20	=20
2G	2d]	2B	2d	0g	2b
2C	2c	2G	2e	.	2cc
1G	1B	2r	1d	.	2dd
.	.	2d	.	.	2b
=21	=21	=21	=21	=21	=21
1r	1A	2e	1c	2r	2cc
.	.	2f#	.	2c	2cc
1G	1G	1g	1r	1d	4b
.	.	.	.	.	4cc
.	.	.	.	.	4dd
.	.	.	.	.	4b
=22	=22	=22	=22	=22	=22
1.c	0r	2.g	2r	2.e	2.cc
.	.	.	2g	.	.
.	.	4f	.	4d	4b
.	.	2e	2a	4e	2a
.	.	.	.	4f	.
2B	.	2d	2b	[2g	2g
=23	=23	=23	=23	=23	=23
0A	1r	2e	1cc	2g]	1a
.	.	2c	.	4f	.
.	.	.	.	4e	.
.	1D	1d	1a	1f#	1r
=24	=24	=24	=24	=24	=24
1G	1G	2r	1b	1g	0r
.	.	2G	.	.	.
1r	2F#	2A	2a	2r	.
.	2G	2B	[2g	2d	.
=25	=25	=25	=25	=25	=25
1r	2C	2c	4g]	2e	2r
.	.	.	4e	.	.
.	2F	2A	2a	2f	2a
2r	1E	1e	1g	2g	2b
2G	.	.	.	2e	2cc
=26	=26	=26	=26	=26	=26
2A	1D	2r	1r	2f	1dd
2B	.	2d	.	2f	.
2.c	1C	2g	2r	4e	1ee
.	.	.	.	4f	.
.	.	2c	2g	4g	.
4B	.	.	.	4e	.
=27	=27	=27	=27	=27	=27
4A	1r	4c	1a	2.f	1cc
4G	.	4B	.	.	.
1F	.	4A	.	.	.
.	.	4G	.	4e	.
.	2r	2A	2f	2d	2dd
2E	2G	2G	2g	2c#	2ee
=28	=28	=28	=28	=28	=28
1D	2A	2r	2f	1d	1ff
.	2B	2d	2d	.	.
1C	2.c	2g	4e	1r	1ee
.	.	.	4f	.	.
.	.	2e	4g	.	.
.	4B	.	4e	.	.
=29	=29	=29	=29	=29	=29
1r	4A	2.f	1a	0r	2r
.	4G	.	.	.	.
.	1F	.	.	.	2cc
.	.	4e	.	.	.
2r	.	2d	2f	.	2dd
2G	2E	2c#	2g	.	2ee
=30	=30	=30	=30	=30	=30
2A	1D	1d	2.f	2r	1ff
2B	.	.	.	2d	.
.	.	.	8e	.	.
.	.	.	8d	.	.
2c	2C	1r	2g	2e	2ee
2A	[2c	.	2c	2f	2cc
=31	=31	=31	=31	=31	=31
1G	2c]	1r	2r	1g	4ee
.	.	.	.	.	4dd
.	2B	.	2d	.	1dd
1r	1A	2r	2f	1a	.
.	.	[2A	2e	.	2cc#
=32	=32	=32	=32	=32	=32
2r	1D	2A]	1a	1f	[0dd
2D	.	1d	.	.	.
2G	1r	.	2b-	2g	.
2F#	.	2d	[2a	2a	.
=33	=33	=33	=33	=33	=33
1G	0r	1d	2a]	1b-	0dd]
.	.	.	1g	.	.
[1D	.	2.d	.	1a	.
.	.	.	4f	.	.
.	.	8c	4e	.	.
.	.	8B	.	.	.
=34	=34	=34	=34	=34	=34
1D]	2r	1A	4f	2r	0dd
.	.	.	4g	.	.
.	2D	.	2a	2f	.
1r	2G	2B-	1d	2g	.
.	2F#	2A	.	2a	.
=35	=35	=35	=35	=35	=35
2r	1G	2G	2.d	1b-	0r
2G	.	2.d	.	.	.
.	.	.	4e	.	.
2.A	1D	.	2f	2a	.
.	.	4e	.	.	.
.	.	2f	2d	2f	.
4B	.	.	.	.	.
=36	=36	=36	=36	=36	=36
1c	1C	4e	1e	4a	0r
.	.	4d	.	4g	.
.	.	4c	.	1g	.
.	.	4B	.	.	.
1A	2r	1c	2r	.	.
.	[2c	.	2c	2f#	.
=37	=37	=37	=37	=37	=37
1G	2c]	1r	1d	[0g	0r
.	2B	.	.	.	.
2r	2c	2r	1e	.	.
[2c	2C	2c	.	.	.
=38	=38	=38	=38	=38	=38
2c]	1G	1d	1d	0g]	0r
2B	.	.	.	.	.
2c	2C	1e	2r	.	.
2C	[2c	.	2c	.	.
=39	=39	=39	=39	=39	=39
1G	2c]	1d	2d	0g	2r
.	2B	.	1g	.	2dd
1C	2c	2r	.	.	1ee
.	2C	[2c	2e	.	.
=40	=40	=40	=40	=40	=40
1r	1D	2c]	2a	0r	1ff
.	.	2B	4g	.	.
.	.	.	4f	.	.
2r	1C	1c	2a	.	1ee
[2c	.	.	2g	.	.
=41	=41	=41	=41	=41	=41
2c]	0r	2G	1g	0r	1dd
2B	.	4g	.	.	.
.	.	4f	.	.	.
2c	.	4e	2r	.	1ee
.	.	4d	.	.	.
2A	.	2c	[2a	.	.
=42	=42	=42	=42	=42	=42
1B-	1r	1d	2a]	0r	1dd
.	.	.	2g	.	.
1A	2r	2e	2a	.	1cc
.	[2c	2c	2e	.	.
=43	=43	=43	=43	=43	=43
1G	2c]	2r	2.g	0r	1dd
.	2B	1g	.	.	.
.	.	.	4f	.	.
1r	2c	.	2e	.	2cc
.	2A	2a	2c	.	[2ee
=44	=44	=44	=44	=44	=44
0r	1B-	2f	1d	2r	4ee]
.	.	.	.	.	4dd
.	.	2d	.	2g	1dd
.	1A	1e	1r	1a	.
.	.	.	.	.	2cc#
=45	=45	=45	=45	=45	=45
2r	1G	1g	1.d	1b-	1dd
1G	.	.	.	.	.
.	1D	1r	.	1a	1r
2F#	.	.	2d	.	.
=46	=46	=46	=46	=46	=46
1G	2r	1.d	1B	1g	0r
.	1G	.	.	.	.
1D	.	.	1A	1a	.
.	2F#	2d	.	.	.
=47	=47	=47	=47	=47	=47
1r	1G	1B	1d	1g	0r
2r	1D	1A	1d	1f	.
[2d	.	.	.	.	.
=48	=48	=48	=48	=48	=48
2d]	1E	1G	0r	1g	1r
2c#	.	.	.	.	.
1d	1D	1A	.	2f	1a
.	.	.	.	[2a	.
=49	=49	=49	=49	=49	=49
1G	2r	1r	0r	4a]	1b
.	.	.	.	4g	.
.	1d	.	.	1g	.
1A	.	2r	.	.	1cc
.	2c	2A	.	2f#	.
=50	=50	=50	=50	=50	=50
1G	2d	2.B	2r	1g	1b
.	2G	.	1g	.	.
.	.	4c	.	.	.
1D	1A	1d	.	1r	1a
.	.	.	2f#	.	.
=51	=51	=51	=51	=51	=51
0r	1G	2r	2g	0r	1b
.	.	1g	2G	.	.
.	1r	.	1d	.	1a
.	.	2f#	.	.	.
=52	=52	=52	=52	=52	=52
2r	0r	2g	1G	0r	1g
1G	.	2G	.	.	.
.	.	2.d	2r	.	1a
2F#	.	.	2d	.	.
.	.	4c	.	.	.
=53	=53	=53	=53	=53	=53
2G	2r	2B	2d	1r	2b
2C	1c	2e	1g	.	2cc
1G	.	1d	.	1d	1b
.	2B	.	[2g	.	.
=54	=54	=54	=54	=54	=54
1C	2c	2r	4g]	1e	2cc
.	.	.	4f	.	.
.	2C	1c	2e	.	2gg
1r	1D	.	1d	1f	2ff
.	.	2B	.	.	2dd
=55	=55	=55	=55	=55	=55
2r	1C	1c	1g	1e	2ee
1c	.	.	.	.	2cc
.	1r	1G	2r	1d	1dd
2B	.	.	[2g	.	.
=56	=56	=56	=56	=56	=56
2c	1r	2r	2g]	1e	1cc
2C	.	1c	2g	.	.
1G	2r	.	2.g	1d	[1dd
.	[2G	2B	.	.	.
.	.	.	4a	.	.
=57	=57	=57	=57	=57	=57
1D	2G]	2.d	2b	[0d	2dd]
.	2F#	.	2.a	.	2a
.	.	4c	.	.	.
1r	2G	1B	.	.	2.b
.	.	.	4g	.	.
.	2G	.	[2g	.	.
.	.	.	.	.	4cc
=58	=58	=58	=58	=58	=58
0D	0A	1A	2g]	0d]	2.dd
.	.	.	4f	.	.
.	.	.	4e	.	8cc
.	.	.	.	.	8b
.	.	1d	1f#	.	1a
=59	=59	=59	=59	=59	=59
[0G	[0G	[0B	[0g	[0d	[0b
=60	=60	=60	=60	=60	=60
0G]	0G]	0B]	0g]	0d]	0b]
==	==	==	==	==	==
*-	*-	*-	*-	*-	*-
!!!CDT: 1525/^1526/-1594/2/2
!!!OCY: Italia
!!!AGN: Mass (Canonic)
!!!AST: renaissance, vocal
!!!ASW: Hymn
!!!PWK: Masses, Book I
!!!RNB: Cadence finals: C
!!!YOR: Le Opere Complete, v. 1, p. 125
!!!YOO: Rome, Italy: Fratelli Scalera
!!!END: 1992//
!!!EED: John Miller
!!!YEC: Copyright 2000, John Miller
!!!YEN: United States of America
!!!YEM: Rights to all derivative electronic formats reserved.
!!!YEM: Refer to licensing agreement for further details.
!!!YEM: This file must be accompanied by the licensing agreement.
!!!YEM: A copy of the licensing agreement may be found at http://www.music-cog.ohio-state.edu/HumdrumDatabases/Palestrina/license.txt
!!!EMD: converted to Humdrum by Bret Aarden
